src/images/footer/dribbble.svg

<svg width="28" height="28" viewBox="0 0 28 28" fill="none" xmlns="http://www.w3.org/2000/svg">
<path d="M14 0.4375C6.52159 0.4375 0.4375 6.52159 0.4375 14C0.4375 21.4784 6.52159 27.5625 14 27.5625C21.4784 27.5625 27.5625 21.4784 27.5625 14C27.5625 6.52159 21.4784 0.4375 14 0.4375ZM22.9671 6.69189C24.5806 8.66316 25.5576 11.1739 25.5831 13.9082C25.2011 13.8274 21.3712 13.0506 17.5166 13.5353C17.202 12.7675 16.9051 12.092 16.4985 11.2596C20.7816 9.51081 22.7229 7.02226 22.9671 6.69189ZM21.6793 5.35227C21.4709 5.64906 19.7271 7.99291 15.6078 9.5369C13.7095 6.04915 11.6055 3.18396 11.2853 2.75521C14.959 1.86966 18.8303 2.82466 21.6793 5.35227ZM9.0749 3.53391C9.38033 3.95276 11.4504 6.8215 13.3699 10.2336C7.95107 11.6726 3.17833 11.6519 2.66022 11.645C3.41141 8.05027 5.83395 5.06259 9.0749 3.53391ZM2.41555 14.0177C2.41555 13.8992 2.4179 13.7813 2.42145 13.6637C2.9283 13.6741 8.54208 13.7464 14.3273 12.0151C14.6589 12.6641 14.9757 13.3229 15.2665 13.981C11.0774 15.1609 7.27147 18.5489 5.39366 21.7634C3.54342 19.7097 2.41555 16.993 2.41555 14.0177ZM6.88937 23.1567C8.09944 20.683 11.3835 17.4898 16.0538 15.8966C17.6803 20.123 18.3529 23.6651 18.5251 24.6815C14.8002 26.2681 10.3212 25.8328 6.88937 23.1567ZM20.4726 23.6209C20.3539 22.9162 19.7373 19.525 18.2221 15.3613C21.8523 14.7802 25.0417 15.7314 25.438 15.8565C24.9216 19.0798 23.0715 21.8636 20.4726 23.6209Z" fill="#52525B"/>
</svg>

<svg width="28" height="28" fill="none" xmlns="http://www.w3.org/2000/svg"><path d="M14 .438C6.522.438.437 6.521.437 14S6.522 27.563 14 27.563c7.478 0 13.563-6.085 13.563-13.563C27.563 6.522 21.477.437 14 .437zm8.967 6.254a11.53 11.53 0 012.616 7.216c-.382-.08-4.212-.857-8.066-.373a35.95 35.95 0 00-1.018-2.275c4.283-1.75 6.224-4.238 6.468-4.568zm-1.288-1.34c-.208.297-1.952 2.64-6.071 4.185a61.833 61.833 0 00-4.323-6.782c3.674-.885 7.545.07 10.394 2.597zM9.075 3.534a73.922 73.922 0 014.295 6.7C7.95 11.673 3.178 11.652 2.66 11.645a11.627 11.627 0 016.415-8.111zm-6.66 10.484c0-.119.003-.237.006-.354.507.01 6.121.082 11.906-1.649.332.65.649 1.308.94 1.966-4.19 1.18-7.996 4.568-9.873 7.782a11.538 11.538 0 01-2.978-7.745zm4.474 9.139c1.21-2.474 4.494-5.667 9.165-7.26 1.626 4.226 2.299 7.768 2.471 8.784A11.561 11.561 0 016.89 23.157zm13.584.464c-.12-.705-.736-4.096-2.25-8.26 3.63-.58 6.819.37 7.215.495a11.605 11.605 0 01-4.965 7.765z" fill="#52525B"/></svg>
